images/3234648.svg

<?xml version="1.0" encoding="UTF-8"?>
<svg xmlns="http://www.w3.org/2000/svg" xmlns:xlink="http://www.w3.org/1999/xlink" width="300pt" height="300pt" viewBox="0 0 300 300" version="1.1">
<defs>
<g>
<symbol overflow="visible" id="glyph0-0">
<path style="stroke:none;" d="M 0.59375 2.125 L 0.59375 -8.46875 L 6.59375 -8.46875 L 6.59375 2.125 Z M 1.265625 1.453125 L 5.9375 1.453125 L 5.9375 -7.78125 L 1.265625 -7.78125 Z M 1.265625 1.453125 "/>
</symbol>
<symbol overflow="visible" id="glyph0-1">
<path style="stroke:none;" d="M 1.171875 -8.75 L 2.765625 -8.75 L 6.65625 -1.4375 L 6.65625 -8.75 L 7.796875 -8.75 L 7.796875 0 L 6.203125 0 L 2.328125 -7.3125 L 2.328125 0 L 1.171875 0 Z M 1.171875 -8.75 "/>
</symbol>
<symbol overflow="visible" id="glyph0-2">
<path style="stroke:none;" d="M 1.171875 -8.75 L 2.359375 -8.75 L 2.359375 -5.15625 L 6.65625 -5.15625 L 6.65625 -8.75 L 7.84375 -8.75 L 7.84375 0 L 6.65625 0 L 6.65625 -4.171875 L 2.359375 -4.171875 L 2.359375 0 L 1.171875 0 Z M 1.171875 -8.75 "/>
</symbol>
</g>
</defs>
<g id="surface41633">
<rect x="0" y="0" width="300" height="300" style="fill:rgb(100%,100%,100%);fill-opacity:1;stroke:none;"/>
<path style="fill:none;stroke-width:1.2;stroke-linecap:butt;stroke-linejoin:miter;stroke:rgb(0%,0%,0%);stroke-opacity:1;stroke-miterlimit:10;" d="M 166.4375 210.296875 L 152.09375 211.503906 "/>
<path style="fill:none;stroke-width:1.2;stroke-linecap:butt;stroke-linejoin:miter;stroke:rgb(0%,0%,100%);stroke-opacity:1;stroke-miterlimit:10;" d="M 152.09375 211.503906 L 137.75 212.714844 "/>
<path style="fill:none;stroke-width:1.2;stroke-linecap:butt;stroke-linejoin:miter;stroke:rgb(0%,0%,100%);stroke-opacity:1;stroke-miterlimit:10;" d="M 137.75 212.714844 L 131.628906 225.742188 "/>
<path style="fill:none;stroke-width:1.2;stroke-linecap:butt;stroke-linejoin:miter;stroke:rgb(0%,0%,0%);stroke-opacity:1;stroke-miterlimit:10;" d="M 131.628906 225.742188 L 125.503906 238.769531 "/>
<path style="fill:none;stroke-width:1.2;stroke-linecap:butt;stroke-linejoin:miter;stroke:rgb(0%,0%,100%);stroke-opacity:1;stroke-miterlimit:10;" d="M 137.75 212.714844 L 129.53125 200.898438 "/>
<path style="fill:none;stroke-width:1.2;stroke-linecap:butt;stroke-linejoin:miter;stroke:rgb(0%,0%,0%);stroke-opacity:1;stroke-miterlimit:10;" d="M 129.53125 200.898438 L 121.3125 189.082031 "/>
<path style=" stroke:none;fill-rule:nonzero;fill:rgb(100%,100%,100%);fill-opacity:1;" d="M 133.75 205.714844 L 142.75 205.714844 L 142.75 219.714844 L 133.75 219.714844 Z M 133.75 205.714844 "/>
<g style="fill:rgb(0%,0%,100%);fill-opacity:1;">
  <use xlink:href="#glyph0-1" x="133.75" y="216.853516"/>
</g>
<path style="fill:none;stroke-width:1.2;stroke-linecap:butt;stroke-linejoin:miter;stroke:rgb(0%,0%,0%);stroke-opacity:1;stroke-miterlimit:10;" d="M 121.3125 189.082031 L 92.625 191.5 "/>
<path style="fill:none;stroke-width:1.2;stroke-linecap:butt;stroke-linejoin:miter;stroke:rgb(0%,0%,0%);stroke-opacity:1;stroke-miterlimit:10;" d="M 92.625 191.5 L 80.375 217.554688 "/>
<path style="fill:none;stroke-width:1.2;stroke-linecap:butt;stroke-linejoin:miter;stroke:rgb(0%,0%,0%);stroke-opacity:1;stroke-miterlimit:10;" d="M 85.269531 191.222656 L 75.472656 212.066406 "/>
<path style="fill:none;stroke-width:1.2;stroke-linecap:butt;stroke-linejoin:miter;stroke:rgb(0%,0%,0%);stroke-opacity:1;stroke-miterlimit:10;" d="M 76.1875 167.867188 L 92.625 191.5 "/>
<path style="fill:none;stroke-width:1.2;stroke-linecap:butt;stroke-linejoin:miter;stroke:rgb(0%,0%,0%);stroke-opacity:1;stroke-miterlimit:10;" d="M 80.375 217.554688 L 51.6875 219.972656 "/>
<path style="fill:none;stroke-width:1.2;stroke-linecap:butt;stroke-linejoin:miter;stroke:rgb(0%,0%,0%);stroke-opacity:1;stroke-miterlimit:10;" d="M 51.6875 219.972656 L 35.25 196.339844 "/>
<path style="fill:none;stroke-width:1.2;stroke-linecap:butt;stroke-linejoin:miter;stroke:rgb(0%,0%,0%);stroke-opacity:1;stroke-miterlimit:10;" d="M 55.605469 213.742188 L 42.453125 194.835938 "/>
<path style="fill:none;stroke-width:1.2;stroke-linecap:butt;stroke-linejoin:miter;stroke:rgb(0%,0%,0%);stroke-opacity:1;stroke-miterlimit:10;" d="M 35.25 196.339844 L 47.5 170.285156 "/>
<path style="fill:none;stroke-width:1.2;stroke-linecap:butt;stroke-linejoin:miter;stroke:rgb(0%,0%,0%);stroke-opacity:1;stroke-miterlimit:10;" d="M 47.5 170.285156 L 76.1875 167.867188 "/>
<path style="fill:none;stroke-width:1.2;stroke-linecap:butt;stroke-linejoin:miter;stroke:rgb(0%,0%,0%);stroke-opacity:1;stroke-miterlimit:10;" d="M 50.9375 176.792969 L 73.886719 174.859375 "/>
<path style="fill:none;stroke-width:1.2;stroke-linecap:butt;stroke-linejoin:miter;stroke:rgb(0%,0%,0%);stroke-opacity:1;stroke-miterlimit:10;" d="M 76.1875 167.867188 L 88.433594 141.8125 "/>
<path style="fill:none;stroke-width:1.2;stroke-linecap:butt;stroke-linejoin:miter;stroke:rgb(0%,0%,0%);stroke-opacity:1;stroke-miterlimit:10;" d="M 88.433594 141.8125 L 117.121094 139.390625 "/>
<path style="fill:none;stroke-width:1.2;stroke-linecap:butt;stroke-linejoin:miter;stroke:rgb(0%,0%,0%);stroke-opacity:1;stroke-miterlimit:10;" d="M 90.734375 134.820312 L 113.683594 132.882812 "/>
<path style="fill:none;stroke-width:1.2;stroke-linecap:butt;stroke-linejoin:miter;stroke:rgb(0%,0%,0%);stroke-opacity:1;stroke-miterlimit:10;" d="M 71.996094 118.175781 L 88.433594 141.8125 "/>
<path style="fill:none;stroke-width:1.2;stroke-linecap:butt;stroke-linejoin:miter;stroke:rgb(0%,0%,0%);stroke-opacity:1;stroke-miterlimit:10;" d="M 117.121094 139.390625 L 129.371094 113.339844 "/>
<path style="fill:none;stroke-width:1.2;stroke-linecap:butt;stroke-linejoin:miter;stroke:rgb(0%,0%,0%);stroke-opacity:1;stroke-miterlimit:10;" d="M 129.371094 113.339844 L 112.933594 89.703125 "/>
<path style="fill:none;stroke-width:1.2;stroke-linecap:butt;stroke-linejoin:miter;stroke:rgb(0%,0%,0%);stroke-opacity:1;stroke-miterlimit:10;" d="M 133.289062 107.105469 L 120.136719 88.199219 "/>
<path style="fill:none;stroke-width:1.2;stroke-linecap:butt;stroke-linejoin:miter;stroke:rgb(0%,0%,0%);stroke-opacity:1;stroke-miterlimit:10;" d="M 158.058594 110.917969 L 129.371094 113.339844 "/>
<path style="fill:none;stroke-width:1.2;stroke-linecap:butt;stroke-linejoin:miter;stroke:rgb(0%,0%,0%);stroke-opacity:1;stroke-miterlimit:10;" d="M 112.933594 89.703125 L 84.246094 92.125 "/>
<path style="fill:none;stroke-width:1.2;stroke-linecap:butt;stroke-linejoin:miter;stroke:rgb(0%,0%,0%);stroke-opacity:1;stroke-miterlimit:10;" d="M 112.933594 89.703125 L 119.054688 76.675781 "/>
<path style="fill:none;stroke-width:1.2;stroke-linecap:butt;stroke-linejoin:miter;stroke:rgb(0%,0%,100%);stroke-opacity:1;stroke-miterlimit:10;" d="M 119.054688 76.675781 L 125.179688 63.652344 "/>
<path style="fill:none;stroke-width:1.2;stroke-linecap:butt;stroke-linejoin:miter;stroke:rgb(0%,0%,0%);stroke-opacity:1;stroke-miterlimit:10;" d="M 84.246094 92.125 L 71.996094 118.175781 "/>
<path style="fill:none;stroke-width:1.2;stroke-linecap:butt;stroke-linejoin:miter;stroke:rgb(0%,0%,0%);stroke-opacity:1;stroke-miterlimit:10;" d="M 89.148438 97.609375 L 79.351562 118.453125 "/>
<path style="fill:none;stroke-width:1.2;stroke-linecap:butt;stroke-linejoin:miter;stroke:rgb(0%,0%,100%);stroke-opacity:1;stroke-miterlimit:10;" d="M 125.179688 63.652344 L 139.523438 62.441406 "/>
<path style="fill:none;stroke-width:1.2;stroke-linecap:butt;stroke-linejoin:miter;stroke:rgb(0%,0%,0%);stroke-opacity:1;stroke-miterlimit:10;" d="M 139.523438 62.441406 L 153.867188 61.230469 "/>
<path style="fill:none;stroke-width:1.2;stroke-linecap:butt;stroke-linejoin:miter;stroke:rgb(0%,0%,100%);stroke-opacity:1;stroke-miterlimit:10;" d="M 128.617188 70.160156 L 140.09375 69.191406 "/>
<path style="fill:none;stroke-width:1.2;stroke-linecap:butt;stroke-linejoin:miter;stroke:rgb(0%,0%,0%);stroke-opacity:1;stroke-miterlimit:10;" d="M 140.09375 69.191406 L 151.566406 68.222656 "/>
<path style=" stroke:none;fill-rule:nonzero;fill:rgb(100%,100%,100%);fill-opacity:1;" d="M 121.179688 56.652344 L 130.179688 56.652344 L 130.179688 70.652344 L 121.179688 70.652344 Z M 121.179688 56.652344 "/>
<g style="fill:rgb(0%,0%,100%);fill-opacity:1;">
  <use xlink:href="#glyph0-1" x="121.179688" y="67.791016"/>
</g>
<path style="fill:none;stroke-width:1.2;stroke-linecap:butt;stroke-linejoin:miter;stroke:rgb(0%,0%,0%);stroke-opacity:1;stroke-miterlimit:10;" d="M 153.867188 61.230469 L 162.085938 73.046875 "/>
<path style="fill:none;stroke-width:1.2;stroke-linecap:butt;stroke-linejoin:miter;stroke:rgb(0%,0%,100%);stroke-opacity:1;stroke-miterlimit:10;" d="M 162.085938 73.046875 L 170.308594 84.867188 "/>
<path style="fill:none;stroke-width:1.2;stroke-linecap:butt;stroke-linejoin:miter;stroke:rgb(0%,0%,100%);stroke-opacity:1;stroke-miterlimit:10;" d="M 170.308594 84.867188 L 164.183594 97.890625 "/>
<path style="fill:none;stroke-width:1.2;stroke-linecap:butt;stroke-linejoin:miter;stroke:rgb(0%,0%,0%);stroke-opacity:1;stroke-miterlimit:10;" d="M 164.183594 97.890625 L 158.058594 110.917969 "/>
<path style="fill:none;stroke-width:1.2;stroke-linecap:butt;stroke-linejoin:miter;stroke:rgb(0%,0%,100%);stroke-opacity:1;stroke-miterlimit:10;" d="M 162.953125 84.589844 L 158.050781 95.011719 "/>
<path style="fill:none;stroke-width:1.2;stroke-linecap:butt;stroke-linejoin:miter;stroke:rgb(0%,0%,0%);stroke-opacity:1;stroke-miterlimit:10;" d="M 158.050781 95.011719 L 153.152344 105.433594 "/>
<path style=" stroke:none;fill-rule:nonzero;fill:rgb(100%,100%,100%);fill-opacity:1;" d="M 166.308594 77.867188 L 175.308594 77.867188 L 175.308594 91.867188 L 166.308594 91.867188 Z M 166.308594 77.867188 "/>
<g style="fill:rgb(0%,0%,100%);fill-opacity:1;">
  <use xlink:href="#glyph0-1" x="166.308594" y="89.005859"/>
</g>
<path style="fill:none;stroke-width:1.2;stroke-linecap:butt;stroke-linejoin:miter;stroke:rgb(0%,0%,0%);stroke-opacity:1;stroke-miterlimit:10;" d="M 158.058594 110.917969 L 166.277344 122.738281 "/>
<path style="fill:none;stroke-width:1.2;stroke-linecap:butt;stroke-linejoin:miter;stroke:rgb(0%,0%,100%);stroke-opacity:1;stroke-miterlimit:10;" d="M 166.277344 122.738281 L 174.496094 134.554688 "/>
<path style="fill:none;stroke-width:1.2;stroke-linecap:butt;stroke-linejoin:miter;stroke:rgb(0%,0%,100%);stroke-opacity:1;stroke-miterlimit:10;" d="M 174.496094 134.554688 L 188.839844 133.34375 "/>
<path style="fill:none;stroke-width:1.2;stroke-linecap:butt;stroke-linejoin:miter;stroke:rgb(0%,0%,0%);stroke-opacity:1;stroke-miterlimit:10;" d="M 188.839844 133.34375 L 203.183594 132.132812 "/>
<path style=" stroke:none;fill-rule:nonzero;fill:rgb(100%,100%,100%);fill-opacity:1;" d="M 165.496094 127.554688 L 183.496094 127.554688 L 183.496094 141.554688 L 165.496094 141.554688 Z M 165.496094 127.554688 "/>
<g style="fill:rgb(0%,0%,100%);fill-opacity:1;">
  <use xlink:href="#glyph0-1" x="165.496094" y="138.693359"/>
  <use xlink:href="#glyph0-2" x="174.472656" y="138.693359"/>
</g>
<path style="fill:none;stroke-width:1.2;stroke-linecap:butt;stroke-linejoin:miter;stroke:rgb(0%,0%,0%);stroke-opacity:1;stroke-miterlimit:10;" d="M 203.183594 132.132812 L 219.625 155.769531 "/>
<path style="fill:none;stroke-width:1.2;stroke-linecap:butt;stroke-linejoin:miter;stroke:rgb(0%,0%,0%);stroke-opacity:1;stroke-miterlimit:10;" d="M 219.625 155.769531 L 207.375 181.824219 "/>
<path style="fill:none;stroke-width:1.2;stroke-linecap:butt;stroke-linejoin:miter;stroke:rgb(0%,0%,0%);stroke-opacity:1;stroke-miterlimit:10;" d="M 224.527344 161.257812 L 214.730469 182.097656 "/>
<path style="fill:none;stroke-width:1.2;stroke-linecap:butt;stroke-linejoin:miter;stroke:rgb(0%,0%,0%);stroke-opacity:1;stroke-miterlimit:10;" d="M 248.3125 153.347656 L 219.625 155.769531 "/>
<path style="fill:none;stroke-width:1.2;stroke-linecap:butt;stroke-linejoin:miter;stroke:rgb(0%,0%,0%);stroke-opacity:1;stroke-miterlimit:10;" d="M 207.375 181.824219 L 223.8125 205.457031 "/>
<path style="fill:none;stroke-width:1.2;stroke-linecap:butt;stroke-linejoin:miter;stroke:rgb(0%,0%,0%);stroke-opacity:1;stroke-miterlimit:10;" d="M 223.8125 205.457031 L 252.5 203.039062 "/>
<path style="fill:none;stroke-width:1.2;stroke-linecap:butt;stroke-linejoin:miter;stroke:rgb(0%,0%,0%);stroke-opacity:1;stroke-miterlimit:10;" d="M 226.113281 198.464844 L 249.0625 196.53125 "/>
<path style="fill:none;stroke-width:1.2;stroke-linecap:butt;stroke-linejoin:miter;stroke:rgb(0%,0%,0%);stroke-opacity:1;stroke-miterlimit:10;" d="M 252.5 203.039062 L 264.75 176.984375 "/>
<path style="fill:none;stroke-width:1.2;stroke-linecap:butt;stroke-linejoin:miter;stroke:rgb(0%,0%,0%);stroke-opacity:1;stroke-miterlimit:10;" d="M 264.75 176.984375 L 248.3125 153.347656 "/>
<path style="fill:none;stroke-width:1.2;stroke-linecap:butt;stroke-linejoin:miter;stroke:rgb(0%,0%,0%);stroke-opacity:1;stroke-miterlimit:10;" d="M 257.546875 178.488281 L 244.394531 159.582031 "/>
</g>
</svg>

<svg xmlns="http://www.w3.org/2000/svg" xmlns:xlink="http://www.w3.org/1999/xlink" width="300pt" height="300pt" viewBox="0 0 300 300"><defs><symbol overflow="visible"><path d="M.594 2.125V-8.47h6V2.126zm.672-.672h4.671V-7.78h-4.67zm0 0"/></symbol><symbol overflow="visible" id="a"><path d="M1.172-8.75h1.594l3.89 7.313V-8.75h1.14V0H6.204L2.328-7.313V0H1.172zm0 0"/></symbol><symbol overflow="visible" id="b"><path d="M1.172-8.75H2.36v3.594h4.296V-8.75h1.188V0H6.656v-4.172H2.36V0H1.17zm0 0"/></symbol></defs><g><path fill="#fff" d="M0 0h300v300H0z"/><path d="M166.438 210.297l-14.344 1.207" stroke-width="1.2" stroke="#000" stroke-miterlimit="10" fill="none"/><path d="M152.094 211.504l-14.344 1.21M137.75 212.715l-6.12 13.027" stroke-width="1.2" stroke="#00f" stroke-miterlimit="10" fill="none"/><path d="M131.63 225.742l-6.126 13.028" stroke-width="1.2" stroke="#000" stroke-miterlimit="10" fill="none"/><path d="M137.75 212.715l-8.22-11.817" stroke-width="1.2" stroke="#00f" stroke-miterlimit="10" fill="none"/><path d="M129.53 200.898l-8.218-11.816" stroke-width="1.2" stroke="#000" stroke-miterlimit="10" fill="none"/><path d="M133.75 205.715h9v14h-9zm0 0" fill="#fff"/><use xlink:href="#a" x="133.75" y="216.854" fill="#00f"/><path d="M121.313 189.082L92.624 191.5M92.625 191.5l-12.25 26.055M85.27 191.223l-9.797 20.843M76.188 167.867L92.624 191.5M80.375 217.555l-28.688 2.418M51.688 219.973L35.25 196.34M55.605 213.742l-13.152-18.906M35.25 196.34l12.25-26.055M47.5 170.285l28.688-2.418M50.938 176.793l22.95-1.934M76.188 167.867l12.246-26.054M88.434 141.813l28.687-2.422M90.734 134.82l22.95-1.937M71.996 118.176l16.438 23.636M117.12 139.39l12.25-26.05M129.37 113.34l-16.436-23.637M133.29 107.105L120.136 88.2M158.06 110.918l-28.69 2.422M112.934 89.703l-28.688 2.422M112.934 89.703l6.12-13.027" stroke-width="1.2" stroke="#000" stroke-miterlimit="10" fill="none"/><path d="M119.055 76.676l6.125-13.024" stroke-width="1.2" stroke="#00f" stroke-miterlimit="10" fill="none"/><path d="M84.246 92.125l-12.25 26.05M89.148 97.61l-9.796 20.843" stroke-width="1.2" stroke="#000" stroke-miterlimit="10" fill="none"/><path d="M125.18 63.652l14.343-1.21" stroke-width="1.2" stroke="#00f" stroke-miterlimit="10" fill="none"/><path d="M139.523 62.44l14.344-1.21" stroke-width="1.2" stroke="#000" stroke-miterlimit="10" fill="none"/><path d="M128.617 70.16l11.477-.97" stroke-width="1.2" stroke="#00f" stroke-miterlimit="10" fill="none"/><path d="M140.094 69.19l11.472-.967" stroke-width="1.2" stroke="#000" stroke-miterlimit="10" fill="none"/><path d="M121.18 56.652h9v14h-9zm0 0" fill="#fff"/><use xlink:href="#a" x="121.18" y="67.791" fill="#00f"/><path d="M153.867 61.23l8.22 11.817" stroke-width="1.2" stroke="#000" stroke-miterlimit="10" fill="none"/><path d="M162.086 73.047l8.223 11.82M170.31 84.867l-6.126 13.024" stroke-width="1.2" stroke="#00f" stroke-miterlimit="10" fill="none"/><path d="M164.184 97.89l-6.125 13.028" stroke-width="1.2" stroke="#000" stroke-miterlimit="10" fill="none"/><path d="M162.953 84.59l-4.902 10.422" stroke-width="1.2" stroke="#00f" stroke-miterlimit="10" fill="none"/><path d="M158.05 95.012l-4.898 10.422" stroke-width="1.2" stroke="#000" stroke-miterlimit="10" fill="none"/><path d="M166.31 77.867h9v14h-9zm0 0" fill="#fff"/><use xlink:href="#a" x="166.309" y="89.006" fill="#00f"/><path d="M158.06 110.918l8.217 11.82" stroke-width="1.2" stroke="#000" stroke-miterlimit="10" fill="none"/><path d="M166.277 122.738l8.22 11.817M174.496 134.555l14.344-1.21" stroke-width="1.2" stroke="#00f" stroke-miterlimit="10" fill="none"/><path d="M188.84 133.344l14.344-1.21" stroke-width="1.2" stroke="#000" stroke-miterlimit="10" fill="none"/><path d="M165.496 127.555h18v14h-18zm0 0" fill="#fff"/><g fill="#00f"><use xlink:href="#a" x="165.496" y="138.693"/><use xlink:href="#b" x="174.473" y="138.693"/></g><path d="M203.184 132.133l16.44 23.637M219.625 155.77l-12.25 26.054M224.527 161.258l-9.797 20.84M248.313 153.348l-28.688 2.422M207.375 181.824l16.438 23.633M223.813 205.457l28.687-2.418M226.113 198.465l22.95-1.934M252.5 203.04l12.25-26.056M264.75 176.984l-16.438-23.636M257.547 178.488l-13.152-18.906" stroke-width="1.2" stroke="#000" stroke-miterlimit="10" fill="none"/></g></svg>
